packages/icons/general/CloudBackup.svg

<svg xmlns="http://www.w3.org/2000/svg" width="64" height="64" fill="none" viewBox="0 0 64 64">
    <path fill="#1C68F3" fill-rule="evenodd" stroke="#1C68F3" stroke-linecap="round" stroke-linejoin="round" stroke-width="0.2" d="M17.5649 16.5156C18.0963 16.5156 18.5272 16.9465 18.5272 17.478V24.2142H25.2635C25.795 24.2142 26.2258 24.6451 26.2258 25.1766C26.2258 25.708 25.795 26.1389 25.2635 26.1389H17.5649C17.0334 26.1389 16.6025 25.708 16.6025 25.1766V17.478C16.6025 16.9465 17.0334 16.5156 17.5649 16.5156Z" clip-rule="evenodd"/>
    <path fill="#1C68F3" fill-rule="evenodd" stroke="#1C68F3" stroke-linecap="round" stroke-linejoin="round" stroke-width="0.2" d="M37.7744 30.5522C37.7744 30.0207 38.2053 29.5898 38.7367 29.5898H46.4353C46.9668 29.5898 47.3977 30.0207 47.3977 30.5522V38.2508C47.3977 38.7823 46.9668 39.2131 46.4353 39.2131C45.9039 39.2131 45.473 38.7823 45.473 38.2508V31.5145H38.7367C38.2053 31.5145 37.7744 31.0836 37.7744 30.5522Z" clip-rule="evenodd"/>
    <path fill="#1C68F3" fill-rule="evenodd" stroke="#1C68F3" stroke-linecap="round" stroke-linejoin="round" stroke-width="0.2" d="M28.457 14.9187C30.5302 14.2862 32.7216 14.2179 34.8266 14.7203C36.9316 15.2226 38.8817 16.2792 40.4948 17.7915C42.1079 19.3038 43.3316 21.2224 44.0516 23.3684C44.2326 23.9081 43.9646 24.5004 43.4529 24.6914C42.9412 24.8824 42.3796 24.5997 42.1986 24.06C41.5893 22.2442 40.554 20.6207 39.189 19.3411C37.824 18.0615 36.174 17.1674 34.3928 16.7424C32.6116 16.3173 30.7574 16.3751 29.0031 16.9103C27.2489 17.4455 25.6517 18.4407 24.3607 19.803C24.3535 19.8107 24.3461 19.8182 24.3386 19.8256L18.2583 25.8517C17.8628 26.2438 17.2408 26.2234 16.8691 25.8062C16.4974 25.389 16.5168 24.7329 16.9123 24.3409L22.9816 18.3257C24.5054 16.7216 26.3888 15.5497 28.457 14.9187ZM47.1304 29.915C47.5021 30.3322 47.4827 30.9883 47.0872 31.3803L41.0179 37.3955C39.4942 38.9995 37.6108 40.1715 35.5425 40.8025C33.4693 41.435 31.2779 41.5033 29.1729 41.0009C27.0679 40.4986 25.1179 39.4419 23.5047 37.9297C21.8916 36.4174 20.6679 34.4988 19.9479 32.3528C19.7669 31.8131 20.0349 31.2208 20.5466 31.0298C21.0583 30.8388 21.6199 31.1215 21.801 31.6612C22.4102 33.477 23.4456 35.1005 24.8105 36.3801C26.1755 37.6597 27.8255 38.5538 29.6067 38.9788C31.3879 39.4039 33.2421 39.3461 34.9964 38.8109C36.7507 38.2757 38.3478 37.2805 39.6388 35.9182C39.6461 35.9105 39.6534 35.903 39.6609 35.8956L45.7412 29.8694C46.1367 29.4774 46.7587 29.4978 47.1304 29.915Z" clip-rule="evenodd"/>
    <g filter="url(#filter0_b_8681_150783)">
        <path fill="#1C68F3" fill-opacity="0.1" d="M42.9998 36.6657C41.7898 30.8259 36.6332 26.6429 30.6665 26.6668C25.8332 26.6668 21.6665 29.3327 19.6665 33.3384C14.4998 33.9998 10.6665 38.1623 10.6665 43.3374C10.6665 48.8329 15.1665 53.3329 20.6665 53.3329H42.3332C46.8898 53.3772 50.6232 49.7193 50.6665 45.1578V44.9976C50.6665 40.6646 47.1665 36.9998 42.9998 36.6623"/>
    </g>
    <defs>
        <filter id="filter0_b_8681_150783" width="46" height="32.6667" x="7.6665" y="23.6667" color-interpolation-filters="sRGB" filterUnits="userSpaceOnUse">
            <feFlood flood-opacity="0" result="BackgroundImageFix"/>
            <feGaussianBlur in="BackgroundImage" stdDeviation="1.5"/>
            <feComposite in2="SourceAlpha" operator="in" result="effect1_backgroundBlur_8681_150783"/>
            <feBlend in="SourceGraphic" in2="effect1_backgroundBlur_8681_150783" mode="normal" result="shape"/>
        </filter>
    </defs>
</svg>

<svg xmlns="http://www.w3.org/2000/svg" fill="none" viewBox="0 0 64 64">
    <path fill="#1C68F3" fill-rule="evenodd" stroke="#1C68F3" stroke-linecap="round" stroke-linejoin="round" stroke-width=".2" d="M17.565 16.516c.531 0 .962.43.962.962v6.736h6.736a.962.962 0 0 1 0 1.925h-7.698a.962.962 0 0 1-.963-.962v-7.699c0-.532.431-.962.963-.962Zm20.209 14.036c0-.531.431-.962.963-.962h7.698c.532 0 .963.43.963.962v7.699a.962.962 0 0 1-1.925 0v-6.736h-6.736a.962.962 0 0 1-.963-.963Z" clip-rule="evenodd"/>
    <path fill="#1C68F3" fill-rule="evenodd" stroke="#1C68F3" stroke-linecap="round" stroke-linejoin="round" stroke-width=".2" d="M28.457 14.919a12.137 12.137 0 0 1 6.37-.199 12.553 12.553 0 0 1 5.668 3.071 13.539 13.539 0 0 1 3.557 5.577c.18.54-.087 1.132-.6 1.323-.51.191-1.072-.091-1.253-.631a11.456 11.456 0 0 0-3.01-4.719 10.622 10.622 0 0 0-4.796-2.599 10.27 10.27 0 0 0-5.39.168 10.71 10.71 0 0 0-4.664 2.916l-6.08 6.026a.947.947 0 0 1-1.39-.046 1.077 1.077 0 0 1 .043-1.465l6.07-6.015a12.654 12.654 0 0 1 5.475-3.407ZM47.13 29.915a1.077 1.077 0 0 1-.043 1.465l-6.07 6.015a12.654 12.654 0 0 1-5.475 3.407 12.136 12.136 0 0 1-6.37.199 12.555 12.555 0 0 1-5.667-3.071 13.539 13.539 0 0 1-3.557-5.577c-.181-.54.087-1.132.599-1.323.511-.191 1.073.091 1.254.631a11.456 11.456 0 0 0 3.01 4.72 10.622 10.622 0 0 0 4.796 2.598 10.27 10.27 0 0 0 5.39-.168 10.709 10.709 0 0 0 4.664-2.915l6.08-6.027a.947.947 0 0 1 1.39.046Z" clip-rule="evenodd"/>
    <g filter="url(#CloudBackup_svg__a)">
        <path fill="#1C68F3" fill-opacity=".1" d="M43 36.666a12.545 12.545 0 0 0-12.334-10c-4.833 0-9 2.667-11 6.672-5.166.662-9 4.824-9 10 0 5.495 4.5 9.995 10 9.995h21.667a8.253 8.253 0 0 0 8.334-8.175v-.16c0-4.333-3.5-7.998-7.667-8.336"/>
    </g>
    <defs>
        <filter id="CloudBackup_svg__a" width="46" height="32.667" x="7.667" y="23.667" color-interpolation-filters="sRGB" filterUnits="userSpaceOnUse">
            <feFlood flood-opacity="0" result="BackgroundImageFix"/>
            <feGaussianBlur in="BackgroundImage" stdDeviation="1.5"/>
            <feComposite in2="SourceAlpha" operator="in" result="effect1_backgroundBlur_8681_150783"/>
            <feBlend in="SourceGraphic" in2="effect1_backgroundBlur_8681_150783" result="shape"/>
        </filter>
    </defs>
</svg>
